X:1
T:Title
T:La Conquista del Paraiso 1492
T:Adapted by: BlackSmith
C:Composer
%%score { 1 | 2 | 3 }
L:1/8
M:3/4
K:F
V:1 treble nm="Piano" snm="Pno."
V:2 bass 
V:3 bass 
V:1
 z4 z A | f>e d2 ^c>d | e>^c A2 z A | f>e d2 ^c>d | e4 c2 | a>g f2 e>f | g>e c2 z z/ c/ | %7
 B>c d2 c>B | A6 | z4 z A | f>e d2 ^c>d | e>^c A2 z A | f>e d2 ^c>d | e4 c2 | a>g f2 e>f | %15
 g>e c2 z z/ c/ | B>c d2 c>B | A4 z A | f>e d2 ^c>d | e>^c A2 z A | f>e d2 ^c>d | e4 c2 | %22
 a>g f2 e>f | g>e c2 z z/ c/ | B>c d2 c>B | A6 | A2- A2 A2 | D4 z2 | A4 z2 | D4 z2 | c2- c2 c2 | %31
 F4 F2 | c4 c2 | B4 B2 | A2- A4 | A2 A2 AA | D4 D2 | G4 G2 | D2- D2 D2 | G4 G2 | D4 D2 | G4 G2 | %42
 D2- D2 D2 | A2 A2 A2 | D4 z D | G4 z G | D2- D2 z D | G4 z G | D4 z D | G4 G2 | D2- D2 D2 | %51
 A2 A2 A2 | D4 D2 | A3 A AA | D2- D2 D2 | C3 C CC | F4 F2 | c3 c cc | B2- B2 B2 | A4 z A | %60
 f>e d2 ^c>d | e>^c A2 z A | f>e d2 ^c>d | e4 c2 | a>g f2 e>f | g>e c2 z z/ c/ | B>c d2 c>B | %67
 A4- A2 | A3 A AA | D4 D2 | G2- G2 G2 | D4 D2 | G4 G2 | D4 D2 | G2- G2 G2 | D4 D2 | A2 A2 A2 | %77
 D4 z D | G2- G2 z G | D4 z D | G4 z G | D4 z D | G2- G2 G2 | D4 D2 | A2 A2 A2 | f>e d2 ^c>d | %86
 e>^c A2 z A | f>e d2 ^c>d | e4 c2 | a>g f2 e>f | g>e c2 z z/ c/ | B>c d2 c>B | A4 z A | %93
 f>e d2 ^c>d | e>^c A2 z A | f>e d2 ^c>d | e4 c2 | a>g f2 e>f | g>e c2 z z/ c/ | B>c d2 c>B | %100
 A4 z A | B>c d2 c>B | A2- A2 z A | B>c d2 c>B | A6 | D3 D DD | D2- D2 D2 | D4 D2 | D6 |] %109
V:2
 z6 | z6 | z6 | z6 | z6 | z6 | z6 | z6 | z6 | z2 z2 z A,, | F,>E, D,2 _D,>=D, | E,>_D, A,,2 z A,, | %12
 F,>E, D,2 _D,>=D, | E,4 C,2 | A,>G, F,2 E,>F, | G,>E, C,2 z z/ C,/ | B,,>C, D,2 C,>B,, | A,,4 z2 | %18
 z2 z A, F,D, | ^C,>E, A,2 A,,2 | z2 z A, F,D, | C,>E, G,4 | z2 z C A,F, | E,>G, C4 | %24
 D,>F, B,F, D,F, | E,>^C, A,,C, E,A, | ^C>A, E,A, CE | z2 z A,/B,/ A,G, | A,3 G, F,E, | %29
 D,2 z A,/B,/ A,G, | C3 G, E,G, | C,2 z C,/F,/ A,C | G,3 F, E,C, | z D,/F,/ B,F, D,F, | E,6 | %35
 z A,,/=B,,/ ^C,C,/D,/ E,A,, | D,2 DA, D,2 | G,2 A,2 =B,2 | ^F,2 E,2 D,2 | G,2 A,2 =B,2 | %40
 ^F,2 E,2 D,2 | G,2 A,2 =B,2 | A,6 | [A,^C]2 [A,C]2 [A,C]2 | D2 DA, D,2 | G,2 A,2 =B,2 | %46
 ^F,2 E,2 D,2 | G,2 A,2 =B,2 | ^F,2 E,2 D,2 | G,2 A,2 =B,2 | A,6 | A,,6 | [D,F,]6 | [^C,E,]6 | %54
 [D,F,]6 | [C,E,]6 | [F,A,]6 | [E,G,]6 | [D,F,]6 | [^C,E,]4 z A,, | F,>E, D,2 ^C,>D, | %61
 E,>^C, A,,2 z A,, | F,>E, D,2 ^C,>D, | E,4 C,2 | A,>G, F,2 E,>F, | G,>E, C,2 z z/ C,/ | %66
 B,,>C, D,2 C,>B,, | A,,6 | A,,2 ^C,2 E,2 | D,2 DA, D,2 | G,2 A,2 =B,2 | ^F,2 E,2 D,2 | %72
 G,2 A,2 =B,2 | ^F,2 E,2 D,2 | G,2 A,2 =B,2 | A,6 | [A,^C]2 [A,C]2 [A,C]2 | D2 DA, D,2 | %78
 G,2 A,2 =B,2 | ^F,2 E,2 D,2 | G,2 A,2 =B,2 | ^F,2 E,2 D,2 | G,2 A,2 =B,2 | A,6 | A,,6 | %85
 z2 z A, F,D, | ^C,>E, A,2 A,,2 | z2 z A, F,D, | C,>E, G,4 | z2 z C A,F, | E,>G, C4 | %91
 D,>F, B,F, D,F, | E,>^C, A,,C, E,A, | F,>E, D,2 ^C,>D, | E,>^C, A,,2 z A,, | F,>E, D,2 ^C,>D, | %96
 E,4 C,2 | A,>G, F,2 E,>F, | G,>E, C,2 z z/ C,/ | B,,>C, D,2 C,>B,, | A,,4 z A,, | %101
 B,,>C, D,2 C,>B,, | A,,4 z A,, | B,,>C, D,2 C,>B,, | A,,6 | ^G,,6- | G,,6- | G,,6 | A,,6 |] %109
V:3
 z6 | [D,,A,,]6 | [A,,,A,,]6 | [D,,A,,]6 | [C,,C,]6 | [F,,C,]6 | [C,,C,]6 | [B,,,F,,]6 | %8
 [A,,,A,,]6- | [A,,,A,,]6 | [D,,A,,]6 | [A,,,A,,]6 | [D,,A,,]6 | [C,,C,]6 | [F,,C,]6 | [C,,C,]6 | %16
 [B,,,F,,]6 | [A,,,A,,]6 | [D,,A,,]6 | [A,,,A,,]6 | [D,,A,,]6 | [C,,C,]6 | [F,,C,]6 | [C,,C,]6 | %24
 [B,,,F,,]6 | [A,,,A,,]6 | [A,,,A,,]4 A,,2 | D,,4 z2 | A,,,4 z2 | D,,4 z2 | C,,4 C,,2 | F,,4 F,,2 | %32
 C,,4 C,,2 | B,,,4 B,,,2 | A,,,6 | A,,,2 A,,2 A,,,A,, | D,,4 D,,2 | G,,4 G,,2 | D,,4 D,,2 | %39
 G,,4 G,,2 | D,,4 D,,2 | G,,4 G,,2 | D,,4 D,,2 | A,,2 A,,,2 A,,2 | D,,4 z D,, | G,,4 z G,, | %46
 D,,4 z D,, | G,,4 z G,, | D,,4 z D,, | G,,4 G,,2 | D,,4 D,,2 | A,,2 A,,,2 A,,2 | D,,4 D,,2 | %53
 A,,,3 A,,, A,,,A,,, | D,,4 D,,2 | C,,3 C,, C,,C,, | F,,4 F,,2 | C,,3 C,, C,,C,, | B,,,4 B,,,2 | %59
 A,,,3 A,,, A,,,A,, | [D,,A,,]6 | [A,,,A,,]6 | [D,,A,,]6 | [C,,C,]6 | [F,,C,]6 | [C,,C,]6 | %66
 [B,,,F,,]6 | [A,,,A,,]6 | [A,,,A,,]3 [A,,,A,,] [A,,,A,,][A,,,A,,] | D,,4 D,,2 | G,,4 G,,2 | %71
 D,,4 D,,2 | G,,4 G,,2 | D,,4 D,,2 | G,,4 G,,2 | D,,4 D,,2 | A,,2 A,,,2 A,,2 | D,,4 z D,, | %78
 G,,4 z G,, | D,,4 z D,, | G,,4 z G,, | D,,4 z D,, | G,,4 G,,2 | D,,4 D,,2 | A,,2 A,,,2 A,,2 | %85
 [D,,A,,]6 | [A,,,A,,]6 | [D,,A,,]6 | [C,,C,]6 | [F,,C,]6 | [C,,C,]6 | [B,,,F,,]6 | %92
 [A,,,A,,]4 [A,,,A,,]2 | D,,3 D,, D,,2 | A,,,3 A,,, A,,,2 | D,,3 D,, D,,2 | C,,4 C,,2 | %97
 F,,3 F,, F,,2 | E,,3 E,, E,,2 | ^D,,4 D,,2 | E,,3 E,, E,,2 | ^D,,4 D,,2 | E,,4 E,,2 | ^D,,4 D,,2 | %104
 ^G,,3 G,, G,,G,, | ^G,,4 G,,2 | ^G,,4 G,,2 | ^G,,6 | z6 |] %109

